X:52
T:Begone Dull Care                           edited
O:No 52 Wm Clarke MS  Feltwell, Norfolk
N:Song
N:Bars 2, 4 + 6:: extra quaver rests removed
N:Bars 3 + 7:  middle of triplets changed to semiquavers
N:bar 15 + 17 rests values adjusted
I:abc2nwc
M:6/8
L:1/8
K:D
A|d3e3|f3z2g|a3/2b/2a g3/2f/2g|f3z2A|d3e3|
f3z2g/2g/2|f3/2g/2f "tr"e3/2d/2e|d3z:|
|:f/2g/2|a2a a2f|g2g g2e|
f2f fed|f3{gf}e2A/2A/2|d3e3|f3zzg|fgf ede|d3z:||:

